X:1
T:Title
%%score 1 2 3
L:1/8
M:6/4
K:Ab
V:1 treble nm="Grand Piano, Soprano"
V:2 treble nm="Grand Piano, Staff-1"
V:3 bass nm="Choir Pad, A Light in the Window"
V:1
 EE A2 A2 A2 B2 c2 | B2 A4- A2 F .F3 | FF E2 A2 c2 B2 A2 | B2 c4- c4- c3/2 z/ | c2 c2 c2 c2 c4 | %5
w: By~William~Batchelder~Bradbury,~1864 * * * * * *|||||
 cc c2 B2 c2 d4 | dd c2 B2 A2 B2 c2- | cB A4- A4- A3/2 z/ | [Ge]2 [Ge]2 [GB]2 [GB]2 [GB]2 [Ge]2 | %9
w: ||||
 [Bd]2 [Ac]4- [Ac]4- [Ac]3/2 z/ | [Ae][Ae] [Ge]2 [GB]2 [GB]2 [GB]2 [ce]2 | %11
w: ||
 [Bd]2 [Ac]4- [Ac]4- [Ac]3/2 z/ | [Ec]2 [Ec]2 [Ec]2 [Ec]2 [Ec]2 [DB]2 | %13
w: ||
 [EA]2 [DF]4- [DF]4- [DF]3/2 z/ | [FA][DF] [CE]2 [EA]2 [Ac]2 [GB]2 [Ec]2- | %15
w: ||
 [Ec][DB] [CA]4- [CA]4- [CA]3/2 z/ |] %16
w: |
V:2
 z2 [CEA]4- [CEA]2 [B,DG]4- | [B,DG]2 [CA]4- [CA]2 [DFA]4- | [DFA]2 [CEA]4- [CEA]2 [EGB]4- | %3
 [EGB]2 [EAc]4- [EAc]4- [EAc]3/2 z/ | c2 [Ec]4- [Ec]2 [=EGc]4- | [EGc]2 [FAc]4- [FAc]2 [FAd]4 | %6
 [EGd]2 [EAc]2 [DGB]2 [CA]2 [DB]2 [Ec]2- | [Ec][DB] [CA]4- [CA]4- [CA]3/2 z/ | z12 | z12 | z12 | %11
 z12 | z12 | z12 | z12 | z12 |] %16
V:3
 z2 [A,,E,]4- [A,,E,]2 [E,,E,]4- | [E,,E,]2 [F,,F,]4- [F,,F,]2 [D,,D,]4- | %2
 [D,,D,]2 [E,,E,]4- [E,,E,]2 [E,,E,]4- | [E,,E,]2 [A,,E,]4- [A,,E,]4- [A,,E,]3/2 z/ | %4
 z2 A,4- A,2 [G,B,]4- | [G,B,]2 [F,A,]4- [F,A,]2 [D,A,]4 | E,2 E,4- E,2 [E,,E,]4- | %7
 [E,,E,]2 [A,,A,]4- [A,,A,]4- [A,,A,]3/2 z/ | [E,B,]2 [E,B,]2 [E,B,]2 [E,B,]2 [E,E]2 [E,E]2 | %9
 [E,E]2 [A,E]4- [A,E]4- [A,E]3/2 z/ | [A,C][A,C] [E,B,]2 [E,B,]2 [E,B,]2 [E,E]2 [E,E]2 | %11
 [E,E]2 [A,E]4- [A,E]4- [A,E]3/2 z/ | A,2 A,2 A,2 A,2 [A,,A,]2 [B,,G,]2 | %13
 [C,A,]2 [D,A,]4- [D,A,]4- [D,A,]3/2 z/ | [D,A,][D,A,] [E,A,]2 [E,C]2 [E,E]2 [E,B,]2 [E,G,]2- | %15
 [E,G,][E,G,] [A,,A,]4- [A,,A,]4- [A,,A,]3/2 z/ |] %16

